;FLAVOR:Marlin
;TIME:795
;Filament used: 5.28231m
;Layer height: 1
;MINX:-104.5
;MINY:-98.256
;MINZ:1.3
;MAXX:103.255
;MAXY:109.5
;MAXZ:1.3
;Generated with Cura_SteamEngine 4.4.0
M82 ;absolute extrusion mode

G92 E0
G92 E0
;LAYER_COUNT:1
;LAYER:0
M107
;MESH:EVT_v4.stl
G0 F360 X16.448 Y-31.204 Z1.3
;TYPE:WALL-OUTER
G1 X15.7 Y-28.761 E4.95583
G1 X15.126 Y-26.929 E8.6797
G1 X14.509 Y-25.032 E12.54905
G1 X13.834 Y-23.059 E16.59386
G1 X4.542 Y2.93 E70.12993
G1 X1.956 Y10.16 E85.02404
G1 X0.707 Y10.16 E87.44673
G1 X0.706 Y10.16 E87.44867
G1 X-1.484 Y10.16 E91.69661
G1 X-.692 Y8.118 E94.19228
G1 X1.741 Y1.853 E107.2287
G1 X11.729 Y-23.876 E154.13485
G1 X12.483 Y-25.818 E157.1181
G1 X13.204 Y-27.674 E159.84294
G1 X13.898 Y-29.46 E162.31605
G1 X14.82 Y-31.835 E165.34347
G1 X15.4 Y-33.327 E168.44848
G1 X16.448 Y-33.327 E170.48129
G1 X18.682 Y-33.327 E174.81458
G1 X19.648 Y-33.327 E176.68833
G1 X20.244 Y-31.801 E179.86606
G1 X21.518 Y-28.544 E186.64979
G1 X22.241 Y-26.695 E190.50073
G1 X22.947 Y-24.89 E194.26018
G1 X23.517 Y-23.432 E197.2967
G1 X36.256 Y9.144 E265.14404
G1 X36.654 Y10.16 E267.26059
G1 X33.659 Y10.16 E271.23153
G1 X21.431 Y-22.616 E328.09094
G1 X20.894 Y-24.087 E330.35279
G1 X20.267 Y-25.922 E333.06342
G1 X19.669 Y-27.821 E335.75028
G1 X18.682 Y-31.19 E339.91353
G1 X16.448 Y-31.204 E342.99023
G0 X16.214 Y-30.439
G0 X-37.444 Y-30.873
G1 X-37.444 Y-12.031 E379.53807
G1 X-11.733 Y-12.031 E429.40972
G1 X-11.733 Y-9.577 E434.16975
G1 X-37.444 Y-9.577 E474.96476
G1 X-37.444 Y7.642 E508.36447
G1 X-9.98 Y7.642 E561.63641
G1 X-9.98 Y10.16 E566.52058
G1 X-37.444 Y10.16 E611.2335
G1 X-40.612 Y10.16 E617.37847
G1 X-40.612 Y-33.327 E701.73024
G1 X-37.444 Y-33.327 E707.87522
G1 X-8.941 Y-33.327 E763.16251
G1 X-8.941 Y-30.873 E767.92254
G1 X-37.444 Y-30.873 E813.14754
G0 X-37.444 Y-30.073
G0 X-12.34 Y99.633
G1 X-13.09 Y99.367 E814.69111
G1 X-15.062 Y98.668 E818.74939
G1 X-15.544 Y98.497 E819.74142
G1 X-18.423 Y97.347 E825.75485
G1 X-21.256 Y96.086 E831.7698
G1 X-24.039 Y94.714 E837.78834
G1 X-26.745 Y93.245 E843.76072
G1 X-29.431 Y91.649 E849.82111
G1 X-32.033 Y89.964 E855.83406
G1 X-34.578 Y88.168 E861.87605
G1 X-37.037 Y86.286 E867.88242
G1 X-39.412 Y84.317 E873.86652
G1 X-41.745 Y82.224 E879.94603
G1 X-43.961 Y80.073 E885.93636
G1 X-46.106 Y77.822 E891.96756
G1 X-48.154 Y75.498 E897.97603
G1 X-50.111 Y73.094 E903.98881
G1 X-51.97 Y70.619 E909.99296
G1 X-53.739 Y68.063 E916.02243
G1 X-55.405 Y65.442 E922.04651
G1 X-56.969 Y62.753 E928.08045
G1 X-58.424 Y60.013 E934.09809
G1 X-59.761 Y57.239 E940.07119
G1 X-61.007 Y54.373 E946.13302
G1 X-62.131 Y51.483 E952.1478
G1 X-63.141 Y48.551 E958.16298
G1 X-64.036 Y45.583 E964.17607
G1 X-64.811 Y42.594 E970.16555
G1 X-65.478 Y39.535 E976.23851
G1 X-66.019 Y36.489 E982.2393
G1 X-66.44 Y33.425 E988.23839
G1 X-66.746 Y30.314 E994.30192
G1 X-66.925 Y27.249 E1000.25723
G1 X-66.986 Y24.101 E1006.36456
G1 X-66.986 Y-59.275 E1168.08906
G1 X-66.986 Y-60.775 E1170.99861
G1 X-65.486 Y-60.775 E1172.87963
G1 X-11.754 Y-60.74 E1277.10366
G1 X20.96 Y-60.733 E1340.55904
G1 X24.071 Y-60.67 E1346.59468
G1 X27.096 Y-60.489 E1352.47277
G1 X30.185 Y-60.179 E1358.49461
G1 X33.189 Y-59.755 E1364.37922
G1 X36.225 Y-59.202 E1370.36505
G1 X39.2 Y-58.537 E1376.27807
G1 X42.18 Y-57.744 E1382.25953
G1 X45.111 Y-56.836 E1388.21136
G1 X47.982 Y-55.82 E1394.11866
G1 X50.855 Y-54.672 E1400.11985
G1 X53.629 Y-53.432 E1406.01369
G1 X56.393 Y-52.061 E1411.99833
G1 X59.068 Y-50.599 E1417.91142
G1 X61.696 Y-49.023 E1423.85531
G1 X64.282 Y-47.328 E1429.85286
G1 X66.75 Y-45.564 E1435.73713
G1 X69.183 Y-43.674 E1441.71304
G1 X71.535 Y-41.691 E1447.68032
G1 X73.779 Y-39.641 E1453.57588
G1 X75.978 Y-37.463 E1459.57933
G1 X78.064 Y-35.226 E1465.51227
G1 X80.047 Y-32.921 E1471.41015
G1 X81.97 Y-30.495 E1477.41489
G1 X83.774 Y-28.022 E1483.35245
G1 X85.474 Y-25.484 E1489.27774
G1 X87.078 Y-22.867 E1495.23154
G1 X88.439 Y-20.436 E1500.63565
G1 X88.546 Y-20.245 E1501.06031
G1 X88.58 Y-20.184 E1501.19577
G1 X88.602 Y-20.14 E1501.29119
G1 X89.498 Y-18.378 E1505.12545
G1 X89.962 Y-17.466 E1507.11025
G1 X90.42 Y-16.468 E1509.24019
G1 X91.273 Y-14.607 E1513.2111
G1 X91.287 Y-14.576 E1513.27707
G1 X91.603 Y-14.034 E1514.49403
G1 X91.98 Y-13.643 E1515.54757
G1 X92.247 Y-13.366 E1516.29383
G1 X92.906 Y-12.984 E1517.77133
G1 X93.8 Y-12.719 E1519.58
G1 X94.563 Y-12.715 E1521.06001
G1 X95.467 Y-12.927 E1522.86107
G1 X96.134 Y-13.3 E1524.34341
G1 X96.814 Y-13.932 E1526.14413
G1 X97.209 Y-14.585 E1527.62445
G1 X97.481 Y-15.451 E1529.38514
G1 X97.52 Y-16.148 E1530.73923
G1 X97.52 Y-16.15 E1530.74311
G1 X97.117 Y-17.955 E1534.33047
G1 X96.691 Y-19.761 E1537.92971
G1 X96.629 Y-20.02 E1538.44628
G1 X96.113 Y-22.068 E1542.54294
G1 X95.565 Y-24.101 E1546.6271
G1 X94.989 Y-26.115 E1550.69029
G1 X94.381 Y-28.111 E1554.73756
G1 X93.833 Y-29.81 E1558.2003
G1 X93.744 Y-30.087 E1558.76465
G1 X93.078 Y-32.045 E1562.77628
G1 X92.38 Y-33.983 E1566.7718
G1 X91.65 Y-35.9 E1570.75069
G1 X91.518 Y-36.23 E1571.4401
G1 X90.892 Y-37.797 E1574.71318
G1 X90.102 Y-39.672 E1578.65975
G1 X89.281 Y-41.525 E1582.59101
G1 X88.429 Y-43.356 E1586.50828
G1 X87.545 Y-45.165 E1590.41375
G1 X86.629 Y-46.95 E1594.30539
G1 X85.681 Y-48.711 E1598.18471
G1 X84.702 Y-50.448 E1602.05226
G1 X83.691 Y-52.16 E1605.90884
G1 X82.694 Y-53.771 E1609.5837
G1 X82.647 Y-53.847 E1609.75703
G1 X81.57 Y-55.507 E1613.59525
G1 X80.461 Y-57.142 E1617.42738
G1 X79.32 Y-58.751 E1621.25344
G1 X78.145 Y-60.331 E1625.07275
G1 X76.938 Y-61.883 E1628.88639
G1 X75.696 Y-63.407 E1632.69984
G1 X74.492 Y-64.821 E1636.30216
G1 X74.422 Y-64.903 E1636.51128
G1 X73.115 Y-66.368 E1640.31946
G1 X71.773 Y-67.805 E1644.1333
G1 X70.398 Y-69.21 E1647.9465
G1 X68.989 Y-70.584 E1651.7639
G1 X68.805 Y-70.756 E1652.25246
G1 X67.546 Y-71.927 E1655.58757
G1 X66.068 Y-73.238 E1659.41975
G1 X64.557 Y-74.516 E1663.2584
G1 X63.01 Y-75.762 E1667.11139
G1 X61.429 Y-76.973 E1670.97431
G1 X59.814 Y-78.15 E1674.85058
G1 X58.164 Y-79.292 E1678.74289
G1 X56.48 Y-80.4 E1682.65297
G1 X54.76 Y-81.472 E1686.5842
G1 X53.055 Y-82.479 E1690.42514
G1 X53.005 Y-82.509 E1690.53824
G1 X51.214 Y-83.508 E1694.51613
G1 X49.39 Y-84.469 E1698.51516
G1 X47.529 Y-85.394 E1702.54626
G1 X45.633 Y-86.28 E1706.60567
G1 X43.701 Y-87.128 E1710.69827
G1 X41.734 Y-87.936 E1714.82302
G1 X39.732 Y-88.706 E1718.98362
G1 X37.692 Y-89.434 E1723.18503
G1 X35.617 Y-90.122 E1727.42538
G1 X33.507 Y-90.769 E1731.70624
G1 X31.36 Y-91.375 E1736.03349
G1 X28.687 Y-92.064 E1741.38778
G1 X26.848 Y-92.486 E1745.0476
G1 X26.456 Y-92.576 E1745.82775
G1 X24.193 Y-93.045 E1750.31057
G1 X23.606 Y-93.153 E1751.46828
G1 X21.891 Y-93.47 E1754.85122
G1 X19.555 Y-93.852 E1759.44255
G1 X17.181 Y-94.189 E1764.09356
G1 X14.77 Y-94.481 E1768.80435
G1 X12.322 Y-94.729 E1773.57705
G1 X9.837 Y-94.93 E1778.41295
G1 X7.314 Y-95.086 E1783.31616
G1 X4.753 Y-95.194 E1788.28815
G1 X2.153 Y-95.256 E1793.3328
G1 X-18.429 Y-95.256 E1833.25573
G1 X-89.048 Y-95.256 E1970.23546
G1 X-89.338 Y-95.196 E1970.80989
G1 X-90.102 Y-95.037 E1972.32357
G1 X-91.273 Y-94.723 E1974.6752
G1 X-92.406 Y-94.327 E1977.00325
G1 X-92.657 Y-94.218 E1977.53404
G1 X-93.49 Y-93.854 E1979.29734
G1 X-93.67 Y-93.758 E1979.69304
G1 X-94.52 Y-93.304 E1981.56223
G1 X-94.614 Y-93.244 E1981.77854
G1 X-95.496 Y-92.678 E1983.81132
G1 X-95.519 Y-92.66 E1983.86797
G1 X-96.409 Y-91.98 E1986.04053
G1 X-97.257 Y-91.214 E1988.2571
G1 X-98.041 Y-90.38 E1990.47737
G1 X-98.722 Y-89.523 E1992.60062
G1 X-98.754 Y-89.483 E1992.69998
G1 X-99.313 Y-88.646 E1994.6523
G1 X-99.394 Y-88.525 E1994.93474
G1 X-99.841 Y-87.72 E1996.72077
G1 X-99.959 Y-87.509 E1997.1897
G1 X-100.312 Y-86.738 E1998.83451
G1 X-100.449 Y-86.44 E1999.4707
G1 X-100.857 Y-85.319 E2001.78464
G1 X-101.187 Y-84.152 E2004.13704
G1 X-101.5 Y-82.583 E2007.2404
G1 X-101.5 Y-62.684 E2045.8385
G1 X-101.5 Y6.808 E2180.6322
G1 X-101.499 Y6.832 E2180.67879
G1 X-101.359 Y9.338 E2185.54726
G1 X-101.176 Y11.82 E2190.37466
G1 X-100.948 Y14.285 E2195.17644
G1 X-100.677 Y16.728 E2199.94419
G1 X-100.363 Y19.152 E2204.68531
G1 X-100.005 Y21.555 E2209.39786
G1 X-99.604 Y23.936 E2214.08132
G1 X-99.161 Y26.295 E2218.73706
G1 X-98.675 Y28.633 E2223.36903
G1 X-98.146 Y30.946 E2227.9714
G1 X-97.577 Y33.236 E2232.54838
G1 X-96.965 Y35.503 E2237.1031
G1 X-96.312 Y37.745 E2241.63261
G1 X-95.618 Y39.961 E2246.13685
G1 X-94.882 Y42.152 E2250.62011
G1 X-94.107 Y44.316 E2255.07869
G1 X-93.486 Y45.944 E2258.45846
G1 X-93.291 Y46.453 E2259.51574
G1 X-92.435 Y48.563 E2263.93248
G1 X-91.538 Y50.644 E2268.32802
G1 X-90.603 Y52.696 E2272.70201
G1 X-90.589 Y52.726 E2272.76622
G1 X-89.847 Y54.267 E2276.08376
G1 X-89.787 Y54.387 E2276.344
G1 X-88.93 Y56.095 E2280.05066
G1 X-88.844 Y56.266 E2280.42194
G1 X-87.8 Y58.237 E2284.74829
G1 X-86.717 Y60.176 E2289.05626
G1 X-85.596 Y62.085 E2293.35038
G1 X-84.437 Y63.962 E2297.62934
G1 X-83.24 Y65.807 E2301.89529
G1 X-82.006 Y67.618 E2306.14606
G1 X-80.734 Y69.396 E2310.38654
G1 X-79.426 Y71.139 E2314.61354
G1 X-79.344 Y71.243 E2314.87043
G1 X-78.19 Y72.709 E2318.48935
G1 X-78.081 Y72.848 E2318.83198
G1 X-76.7 Y74.522 E2323.04137
G1 X-75.282 Y76.16 E2327.24375
G1 X-73.828 Y77.762 E2331.4402
G1 X-72.338 Y79.327 E2335.63163
G1 X-70.814 Y80.854 E2339.8163
G1 X-69.255 Y82.344 E2343.99931
G1 X-67.66 Y83.793 E2348.17919
G1 X-66.032 Y85.205 E2352.35929
G1 X-64.368 Y86.576 E2356.54137
G1 X-62.672 Y87.906 E2360.72201
G1 X-60.941 Y89.196 E2364.90945
G1 X-59.177 Y90.443 E2369.0997
G1 X-59.132 Y90.473 E2369.20461
G1 X-57.381 Y91.649 E2373.29594
G1 X-55.718 Y92.707 E2377.11914
G1 X-55.551 Y92.813 E2377.50281
G1 X-53.689 Y93.933 E2381.71757
G1 X-51.796 Y95.008 E2385.94018
G1 X-49.87 Y96.04 E2390.17855
G1 X-47.914 Y97.027 E2394.42827
G1 X-45.925 Y97.968 E2398.69632
G1 X-45.749 Y98.046 E2399.06973
G1 X-44.137 Y98.761 E2402.4903
G1 X-43.907 Y98.863 E2402.97833
G1 X-41.858 Y99.712 E2407.28045
G1 X-39.778 Y100.512 E2411.60316
G1 X-39.397 Y100.648 E2412.38785
G1 X-37.688 Y101.26 E2415.90894
G1 X-37.668 Y101.267 E2415.95005
G1 X-36.058 Y101.796 E2419.23722
G1 X-35.048 Y102.128 E2421.29944
G1 X-34.451 Y102.305 E2422.50727
G1 X-32.871 Y102.773 E2425.70361
G1 X-32.756 Y102.804 E2425.93464
G1 X-31.007 Y103.277 E2429.44905
G1 X-30.667 Y103.37 E2430.13278
G1 X-29.326 Y103.697 E2432.81013
G1 X-28.434 Y103.915 E2434.59127
G1 X-27.591 Y104.099 E2436.26493
G1 X-26.174 Y104.41 E2439.07891
G1 X-25.872 Y104.468 E2439.6754
G1 X-24.027 Y104.826 E2443.3209
G1 X-23.886 Y104.854 E2443.59974
G1 X-22.25 Y105.13 E2446.81793
G1 X-21.57 Y105.246 E2448.15598
G1 X-19.227 Y105.586 E2452.7483
G1 X-18.692 Y105.651 E2453.79367
G1 X-16.857 Y105.874 E2457.37921
G1 X-14.363 Y106.117 E2462.23973
G1 X-14.307 Y106.114 E2462.34851
G1 X-13.688 Y106.079 E2463.55111
G1 X-13.091 Y105.935 E2464.74232
G1 X-12.531 Y105.691 E2465.92718
G1 X-12.025 Y105.355 E2467.10535
G1 X-11.585 Y104.937 E2468.28255
G1 X-11.223 Y104.449 E2469.46113
G1 X-10.951 Y103.905 E2470.64088
G1 X-10.777 Y103.322 E2471.82101
G1 X-10.707 Y102.717 E2473.00236
G1 X-10.742 Y102.11 E2474.18171
G1 X-10.883 Y101.517 E2475.36403
G1 X-11.123 Y100.959 E2476.54225
G1 X-11.457 Y100.449 E2477.72476
G1 X-11.854 Y100.028 E2478.84719
G1 X-12.34 Y99.633 E2480.06198
G0 X-13.09 Y99.367
G0 X-13.094 Y99.366
G0 X100.255 Y106.5
G1 X100.255 Y26.051 E2636.10897
G1 X99.915 Y23.084 E2641.90173
G1 X99.535 Y20.259 E2647.43073
G1 X99.108 Y17.507 E2652.83266
G1 X98.634 Y14.825 E2658.11556
G1 X98.117 Y12.215 E2663.27655
G1 X97.556 Y9.672 E2668.32781
G1 X96.952 Y7.198 E2673.26758
G1 X96.306 Y4.792 E2678.09979
G1 X95.62 Y2.451 E2682.83158
G1 X94.895 Y0.176 E2687.46306
G1 X94.131 Y-2.033 E2691.99689
G1 X93.33 Y-4.18 E2696.44181
G1 X92.679 Y-5.798 E2699.82476
G1 X91.817 Y-7.829 E2704.10443
G1 X90.917 Y-9.805 E2708.31611
G1 X89.985 Y-11.718 E2712.41701
G1 X89.793 Y-12.087 E2713.13621
G1 X89.382 Y-12.876 E2714.66835
G1 X89.092 Y-13.432 E2715.69736
G1 X89.019 Y-13.573 E2715.88546
G1 X88.023 Y-15.368 E2719.28178
G1 X87.606 Y-16.074 E2720.67794
G1 X86.997 Y-17.106 E2722.83752
G1 X86.059 Y-18.602 E2726.12714
G1 X85.943 Y-18.787 E2726.54874
G1 X85.822 Y-18.969 E2726.97147
G1 X84.86 Y-20.412 E2730.33543
G1 X83.75 Y-21.982 E2734.06501
G1 X82.615 Y-23.497 E2737.73686
G1 X81.455 Y-24.959 E2741.35691
G1 X80.273 Y-26.367 E2744.92279
G1 X79.068 Y-27.724 E2748.44294
G1 X77.842 Y-29.03 E2751.91751
G1 X76.597 Y-30.286 E2755.34785
G1 X75.334 Y-31.495 E2758.73919
G1 X74.051 Y-32.654 E2762.0929
G1 X72.754 Y-33.765 E2765.40549
G1 X71.441 Y-34.83 E2768.68479
G1 X70.115 Y-35.85 E2771.92976
G1 X68.775 Y-36.826 E2775.14532
G1 X67.424 Y-37.758 E2778.32893
G1 X66.064 Y-38.646 E2781.47946
G1 X64.694 Y-39.493 E2784.60371
G1 X63.315 Y-40.301 E2787.7039
G1 X61.93 Y-41.067 E2790.77389
G1 X60.539 Y-41.795 E2793.8192
G1 X59.144 Y-42.485 E2796.83799
G1 X57.745 Y-43.138 E2799.83268
G1 X56.345 Y-43.756 E2802.80107
G1 X54.935 Y-44.341 E2805.76211
G1 X51.827 Y-45.517 E2812.20782
G1 X49.031 Y-46.441 E2817.9197
G1 X46.259 Y-47.245 E2823.51815
G1 X43.513 Y-47.938 E2829.01157
G1 X40.804 Y-48.528 E2834.3894
G1 X38.141 Y-49.023 E2839.6433
G1 X35.532 Y-49.43 E2844.76519
G1 X32.985 Y-49.758 E2849.7464
G1 X30.511 Y-50.014 E2854.57085
G1 X28.073 Y-50.209 E2859.31494
G1 X-56.505 Y-50.209 E3023.37096
G1 X-56.505 Y30.036 E3179.02226
G1 X-56.163 Y33.282 E3185.35338
G1 X-55.702 Y36.462 E3191.5861
G1 X-55.12 Y39.624 E3197.82247
G1 X-54.416 Y42.759 E3204.05487
G1 X-53.594 Y45.866 E3210.28887
G1 X-52.652 Y48.939 E3216.52333
G1 X-51.592 Y51.974 E3222.75905
G1 X-50.417 Y54.965 E3228.99232
G1 X-49.127 Y57.909 E3235.22695
G1 X-47.726 Y60.801 E3241.46014
G1 X-46.214 Y63.638 E3247.69583
G1 X-44.595 Y66.414 E3253.92928
G1 X-42.87 Y69.125 E3260.16208
G1 X-41.043 Y71.769 E3266.39593
G1 X-39.115 Y74.341 E3272.63091
G1 X-37.089 Y76.836 E3278.86508
G1 X-34.969 Y79.252 E3285.09978
G1 X-32.759 Y81.584 E3291.33172
G1 X-30.46 Y83.83 E3297.56596
G1 X-28.076 Y85.986 E3303.80076
G1 X-25.611 Y88.049 E3310.03568
G1 X-23.069 Y90.015 E3316.26901
G1 X-20.453 Y91.883 E3322.50414
G1 X-17.768 Y93.647 E3328.73566
G1 X-15.016 Y95.309 E3334.97165
G1 X-14.034 Y95.852 E3337.14825
G1 X-12.203 Y96.863 E3340.9734
G1 X-11.202 Y97.365 E3342.89593
G1 X-10.655 Y97.64 E3343.93808
G1 X-10.169 Y97.885 E3344.86871
G1 X-9.331 Y98.307 E3346.68865
G1 X-6.407 Y99.641 E3352.92271
G1 X-3.434 Y100.861 E3359.1561
G1 X-.416 Y101.966 E3365.39017
G1 X2.642 Y102.953 E3371.62308
G1 X5.736 Y103.824 E3377.85778
G1 X8.862 Y104.573 E3384.09291
G1 X12.013 Y105.204 E3390.32625
G1 X15.186 Y105.712 E3396.55931
G1 X18.378 Y106.098 E3402.79594
G1 X21.58 Y106.36 E3409.02762
G1 X24.795 Y106.5 E3415.26966
G1 X100.255 Y106.5 E3561.63949
G0 X100.255 Y105.7
G0 X100.46 Y-16.743
G1 X101.153 Y-13.318 E3568.41759
G1 X101.794 Y-9.699 E3575.54663
G1 X102.354 Y-6.042 E3582.72281
G1 X102.837 Y-2.316 E3590.0106
G1 X103.255 Y1.612 E3597.67277
G1 X103.255 Y26.051 E3645.07711
G1 X103.255 Y106.5 E3801.12411
G1 X103.255 Y109.5 E3806.94321
G1 X100.255 Y109.5 E3812.76232
G1 X24.795 Y109.5 E3959.13214
G1 X-5.926 Y109.5 E4018.72169
G1 X-7.497 Y109.476 E4021.76932
G1 X-9.45 Y109.419 E4025.55917
G1 X-11.388 Y109.328 E4029.32245
G1 X-13.335 Y109.203 E4033.10682
G1 X-14.552 Y109.103 E4035.47539
G1 X-14.608 Y109.099 E4035.58415
G1 X-15.264 Y109.044 E4036.86106
G1 X-17.14 Y108.856 E4040.51816
G1 X-17.211 Y108.848 E4040.65664
G1 X-19.053 Y108.628 E4044.25017
G1 X-19.632 Y108.549 E4045.38148
G1 X-20.914 Y108.373 E4047.89151
G1 X-22.031 Y108.199 E4050.08428
G1 X-22.75 Y108.086 E4051.49261
G1 X-24.397 Y107.8 E4054.72756
G1 X-24.597 Y107.765 E4055.12039
G1 X-26.441 Y107.408 E4058.75572
G1 X-26.795 Y107.333 E4059.45566
G1 X-28.232 Y107.027 E4062.29843
G1 X-29.108 Y106.825 E4064.03764
G1 X-30.036 Y106.609 E4065.88096
G1 X-31.398 Y106.265 E4068.59768
G1 X-31.789 Y106.166 E4069.37723
G1 X-33.536 Y105.691 E4072.87837
G1 X-33.707 Y105.641 E4073.22284
G1 X-35.301 Y105.176 E4076.43344
G1 X-35.939 Y104.977 E4077.72539
G1 X-36.994 Y104.646 E4079.86452
G1 X-38.613 Y104.107 E4083.16996
G1 X-38.696 Y104.079 E4083.33962
G1 X-40.407 Y103.472 E4086.85641
G1 X-40.83 Y103.313 E4087.73171
G1 X-42.048 Y102.855 E4090.25577
G1 X-42.964 Y102.49 E4092.1684
