;FLAVOR:Marlin
;TIME:199
;Filament used: 1.84065m
;Layer height: 1
;MINX:-47.5
;MINY:-47.5
;MINZ:1.3
;MAXX:47.5
;MAXY:47.5
;MAXZ:1.3
;Generated with Cura_SteamEngine 4.10.0
M82 ;absolute extrusion mode

G92 E0
G92 E0
;LAYER_COUNT:1
;LAYER:0
M107
G0 F360 X21.872 Y-45.303 Z1.3
;TYPE:SKIRT
G1 X45.303 Y-21.872 E53.72847
G1 X45.822 Y-21.297 E54.98441
G1 X46.278 Y-20.672 E56.23886
G1 X46.668 Y-20.003 E57.49446
G1 X46.986 Y-19.297 E58.74995
G1 X47.23 Y-18.562 E60.00566
G1 X47.397 Y-17.806 E61.26101
G1 X47.485 Y-17.036 E62.51764
G1 X47.5 Y-16.569 E63.27524
G1 X47.5 Y16.569 E117.00624
G1 X47.46 Y17.342 E118.26128
G1 X47.341 Y18.107 E119.5166
G1 X47.143 Y18.856 E120.77277
G1 X46.869 Y19.58 E122.02794
G1 X46.522 Y20.273 E123.28458
G1 X46.105 Y20.925 E124.53948
G1 X45.623 Y21.531 E125.79498
G1 X45.303 Y21.872 E126.55321
G1 X21.872 Y45.303 E180.28168
G1 X21.297 Y45.822 E181.53762
G1 X20.672 Y46.278 E182.79207
G1 X20.003 Y46.668 E184.04767
G1 X19.297 Y46.986 E185.30317
G1 X18.562 Y47.23 E186.55887
G1 X17.806 Y47.397 E187.81422
G1 X17.036 Y47.485 E189.07085
G1 X16.569 Y47.5 E189.82845
G1 X-16.569 Y47.5 E243.55945
G1 X-17.342 Y47.46 E244.8145
G1 X-18.107 Y47.341 E246.06981
G1 X-18.856 Y47.143 E247.32598
G1 X-19.58 Y46.869 E248.58115
G1 X-20.273 Y46.522 E249.8378
G1 X-20.925 Y46.105 E251.0927
G1 X-21.531 Y45.623 E252.34819
G1 X-21.872 Y45.303 E253.10643
G1 X-45.303 Y21.872 E306.83489
G1 X-45.822 Y21.297 E308.09083
G1 X-46.278 Y20.672 E309.34528
G1 X-46.668 Y20.003 E310.60088
G1 X-46.986 Y19.297 E311.85638
G1 X-47.23 Y18.562 E313.11208
G1 X-47.397 Y17.806 E314.36744
G1 X-47.485 Y17.036 E315.62407
G1 X-47.5 Y16.569 E316.38167
G1 X-47.5 Y-16.569 E370.11267
G1 X-47.46 Y-17.342 E371.36771
G1 X-47.341 Y-18.107 E372.62302
G1 X-47.143 Y-18.856 E373.87919
G1 X-46.869 Y-19.58 E375.13436
G1 X-46.522 Y-20.273 E376.39101
G1 X-46.105 Y-20.925 E377.64591
G1 X-45.623 Y-21.531 E378.9014
G1 X-45.303 Y-21.872 E379.65964
G1 X-21.872 Y-45.303 E433.38811
G1 X-21.297 Y-45.822 E434.64405
G1 X-20.672 Y-46.278 E435.8985
G1 X-20.003 Y-46.668 E437.1541
G1 X-19.297 Y-46.986 E438.40959
G1 X-18.562 Y-47.23 E439.6653
G1 X-17.806 Y-47.397 E440.92065
G1 X-17.036 Y-47.485 E442.17728
G1 X-16.569 Y-47.5 E442.93488
G1 X16.569 Y-47.5 E496.66588
G1 X17.342 Y-47.46 E497.92092
G1 X18.107 Y-47.341 E499.17624
G1 X18.856 Y-47.143 E500.43241
G1 X19.58 Y-46.869 E501.68758
G1 X20.273 Y-46.522 E502.94422
G1 X20.925 Y-46.105 E504.19912
G1 X21.531 Y-45.623 E505.45462
G1 X21.872 Y-45.303 E506.21285
G0 X19.751 Y-43.182
G1 X43.182 Y-19.751 E559.94132
G1 X43.577 Y-19.3 E560.9134
G1 X43.908 Y-18.8 E561.88567
G1 X44.17 Y-18.26 E562.85886
G1 X44.358 Y-17.691 E563.83051
G1 X44.468 Y-17.101 E564.80364
G1 X44.5 Y-16.569 E565.6678
G1 X44.5 Y16.569 E619.3988
G1 X44.46 Y17.167 E620.37058
G1 X44.341 Y17.755 E621.34331
G1 X44.145 Y18.322 E622.31604
G1 X43.875 Y18.857 E623.28772
G1 X43.536 Y19.352 E624.2605
G1 X43.182 Y19.751 E625.12538
G1 X19.751 Y43.182 E678.85384
G1 X19.3 Y43.577 E679.82593
G1 X18.8 Y43.908 E680.79819
G1 X18.26 Y44.17 E681.77138
G1 X17.691 Y44.358 E682.74303
G1 X17.101 Y44.468 E683.71616
G1 X16.569 Y44.5 E684.58032
G1 X-16.569 Y44.5 E738.31132
G1 X-17.167 Y44.46 E739.2831
G1 X-17.755 Y44.341 E740.25583
G1 X-18.322 Y44.145 E741.22856
G1 X-18.857 Y43.875 E742.20024
G1 X-19.352 Y43.536 E743.17302
G1 X-19.751 Y43.182 E744.0379
G1 X-43.182 Y19.751 E797.76637
G1 X-43.577 Y19.3 E798.73845
G1 X-43.908 Y18.8 E799.71071
G1 X-44.17 Y18.26 E800.6839
G1 X-44.358 Y17.691 E801.65555
G1 X-44.468 Y17.101 E802.62868
G1 X-44.5 Y16.569 E803.49284
G1 X-44.5 Y-16.569 E857.22384
G1 X-44.46 Y-17.167 E858.19562
G1 X-44.341 Y-17.755 E859.16835
G1 X-44.145 Y-18.322 E860.14109
G1 X-43.875 Y-18.857 E861.11276
G1 X-43.536 Y-19.352 E862.08555
G1 X-43.182 Y-19.751 E862.95042
G1 X-19.751 Y-43.182 E916.67889
G1 X-19.3 Y-43.577 E917.65097
G1 X-18.8 Y-43.908 E918.62324
G1 X-18.26 Y-44.17 E919.59643
G1 X-17.691 Y-44.358 E920.56807
G1 X-17.101 Y-44.468 E921.5412
G1 X-16.569 Y-44.5 E922.40536
G1 X16.569 Y-44.5 E976.13636
G1 X17.167 Y-44.46 E977.10815
G1 X17.755 Y-44.341 E978.08088
G1 X18.322 Y-44.145 E979.05361
G1 X18.857 Y-43.875 E980.02528
G1 X19.352 Y-43.536 E980.99807
G1 X19.751 Y-43.182 E981.86294
G0 X17.63 Y-41.061
G1 X41.061 Y-17.63 E1035.59141
G1 X41.275 Y-17.359 E1036.1513
G1 X41.422 Y-17.045 E1036.71346
G1 X41.5 Y-16.569 E1037.49556
G1 X41.5 Y16.569 E1091.22656
G1 X41.46 Y16.913 E1091.78809
G1 X41.343 Y17.238 E1092.34816
G1 X41.061 Y17.63 E1093.13114
G1 X17.63 Y41.061 E1146.85961
G1 X17.359 Y41.275 E1147.4195
G1 X17.045 Y41.422 E1147.98166
G1 X16.569 Y41.5 E1148.76376
G1 X-16.569 Y41.5 E1202.49476
G1 X-16.913 Y41.46 E1203.05629
G1 X-17.238 Y41.343 E1203.61636
G1 X-17.63 Y41.061 E1204.39934
G1 X-41.061 Y17.63 E1258.12781
G1 X-41.275 Y17.359 E1258.6877
G1 X-41.422 Y17.045 E1259.24986
G1 X-41.5 Y16.569 E1260.03196
G1 X-41.5 Y-16.569 E1313.76295
G1 X-41.46 Y-16.913 E1314.32449
G1 X-41.343 Y-17.238 E1314.88456
G1 X-41.061 Y-17.63 E1315.66754
G1 X-17.63 Y-41.061 E1369.39601
G1 X-17.359 Y-41.275 E1369.9559
G1 X-17.045 Y-41.422 E1370.51806
G1 X-16.569 Y-41.5 E1371.30015
G1 X16.569 Y-41.5 E1425.03115
G1 X16.913 Y-41.46 E1425.59268
G1 X17.238 Y-41.343 E1426.15276
G1 X17.63 Y-41.061 E1426.93574
;MESH:hex.stl
G0 X15.947 Y-38.5
;TYPE:WALL-OUTER
G1 X38.5 Y-15.947 E1478.65091
G1 X38.5 Y15.947 E1530.36485
G1 X15.947 Y38.5 E1582.08002
G1 X-15.947 Y38.5 E1633.79395
G1 X-38.5 Y15.947 E1685.50912
G1 X-38.5 Y-15.947 E1737.22306
G1 X-15.947 Y-38.5 E1788.93823
G1 X15.947 Y-38.5 E1840.65217
G0 X16.088 Y-38.359
;TIME_ELAPSED:199.571679

M82 ;absolute extrusion mode
;End of Gcode
;SETTING_3 {"global_quality": "[general]\\nversion = 4\\nname = Cura_Profil_dEBA
;SETTING_3 M\\ndefinition = custom\\n\\n[metadata]\\nsetting_version = 17\\nqual
;SETTING_3 ity_type = normal\\ntype = quality_changes\\n\\n[values]\\nadhesion_t
;SETTING_3 ype = brim\\nlayer_height = 1\\nlayer_height_0 = 1.3\\nmachine_max_ac
;SETTING_3 celeration_e = 20\\nmachine_max_acceleration_x = 50\\nmachine_max_acc
;SETTING_3 eleration_y = 50\\nmachine_max_acceleration_z = 50\\nmachine_max_feed
;SETTING_3 rate_e = 20\\nmachine_name = EBA\\nmachine_use_extruder_offset_to_off
;SETTING_3 set_coords = False\\nmaterial_bed_temp_wait = False\\nmaterial_print_
;SETTING_3 temp_wait = False\\nretraction_combing = off\\nspeed_slowdown_layers 
;SETTING_3 = 0\\n\\n", "extruder_quality": ["[general]\\nversion = 4\\nname = Cu
;SETTING_3 ra_Profil_dEBAM\\ndefinition = custom\\n\\n[metadata]\\nintent_catego
;SETTING_3 ry = default\\nposition = 0\\nsetting_version = 17\\nquality_type = n
;SETTING_3 ormal\\ntype = quality_changes\\n\\n[values]\\nbottom_layers = 0\\nco
;SETTING_3 ol_fan_enabled = False\\nfill_perimeter_gaps = nowhere\\ninfill_angle
;SETTING_3 s = [90,0]\\ninfill_line_distance = =0 if infill_sparse_density == 0 
;SETTING_3 else (infill_line_width * 100) / infill_sparse_density * (2 if infill
;SETTING_3 _pattern == 'grid' else (3 if infill_pattern == 'triangles' or infill
;SETTING_3 _pattern == 'trihexagon' or infill_pattern == 'cubic' or infill_patte
;SETTING_3 rn == 'cubicsubdiv' else (2 if infill_pattern == 'tetrahedral' or inf
;SETTING_3 ill_pattern == 'quarter_cubic' else (1 if infill_pattern == 'cross' o
;SETTING_3 r infill_pattern == 'cross_3d' else 1))))\\ninfill_pattern = zigzag\\
;SETTING_3 ninfill_sparse_density = 0\\ninitial_bottom_layers = 0\\nlayer_start_
;SETTING_3 x = 0\\nlayer_start_y = 0\\nline_width = 3\\nmachine_heat_zone_length
;SETTING_3  = 0\\nmachine_nozzle_temp_enabled = False\\nmachine_nozzle_tip_outer
;SETTING_3 _diameter = 1.6\\nmaterial_final_print_temperature = 0\\nmaterial_ini
;SETTING_3 tial_print_temperature = 0\\noptimize_wall_printing_order = True\\nre
;SETTING_3 traction_enable = False\\nsmall_feature_speed_factor = 100\\nspeed_la
;SETTING_3 yer_0 = 6\\nspeed_print = 6\\nspeed_topbottom = 20\\nspeed_travel = 6
;SETTING_3 \\nspeed_travel_layer_0 = 6\\nspeed_wall = 6\\nspeed_wall_x = 6\\ntop
;SETTING_3 _layers = 0\\ntravel_avoid_distance = 1\\nwall_line_count = 1\\nwall_
;SETTING_3 thickness = 3\\n\\n"]}
