;FLAVOR:Marlin
;TIME:1479
;Filament used: 8.36128m
;Layer height: 1
;MINX:-82.48
;MINY:-82.491
;MINZ:1.3
;MAXX:82.483
;MAXY:82.491
;MAXZ:10.3
;Generated with Cura_SteamEngine 4.10.0
M82 ;absolute extrusion mode

G92 E0
G92 E0
;LAYER_COUNT:10
;LAYER:0
M107
G0 F360 X-80.074 Y19.776 Z1.3
;TYPE:SKIRT
G1 X-80.18 Y19.343 E0.72281
G1 X-81.114 Y14.953 E8.00021
G1 X-81.194 Y14.51 E8.73013
G1 X-81.863 Y10.072 E16.00734
G1 X-81.917 Y9.626 E16.73578
G1 X-82.319 Y5.156 E24.01283
G1 X-82.346 Y4.708 E24.74055
G1 X-82.48 Y0.225 E32.01267
G1 X-82.48 Y-.223 E32.73907
G1 X-82.346 Y-4.708 E40.01444
G1 X-82.319 Y-5.156 E40.74216
G1 X-81.917 Y-9.626 E48.01921
G1 X-81.863 Y-10.072 E48.74765
G1 X-81.194 Y-14.51 E56.02486
G1 X-81.114 Y-14.951 E56.75158
G1 X-80.181 Y-19.341 E64.02865
G1 X-80.075 Y-19.778 E64.75776
G1 X-78.881 Y-24.103 E72.03278
G1 X-78.748 Y-24.531 E72.75949
G1 X-77.298 Y-28.776 E80.03293
G1 X-77.14 Y-29.198 E80.76356
G1 X-75.437 Y-33.351 E88.04153
G1 X-75.256 Y-33.758 E88.76377
G1 X-73.31 Y-37.801 E96.03906
G1 X-73.102 Y-38.201 E96.77008
G1 X-70.917 Y-42.119 E104.04396
G1 X-70.688 Y-42.502 E104.7675
G1 X-68.273 Y-46.284 E112.04333
G1 X-68.02 Y-46.656 E112.77279
G1 X-65.383 Y-50.286 E120.0477
G1 X-65.107 Y-50.642 E120.77808
G1 X-62.256 Y-54.108 E128.05493
G1 X-61.962 Y-54.445 E128.78006
G1 X-58.909 Y-57.736 E136.05873
G1 X-58.594 Y-58.056 E136.7868
G1 X-55.351 Y-61.157 E144.06218
G1 X-55.017 Y-61.458 E144.79121
G1 X-51.594 Y-64.359 E152.06649
G1 X-51.243 Y-64.638 E152.7935
G1 X-47.653 Y-67.329 E160.06822
G1 X-47.287 Y-67.587 E160.79429
G1 X-43.541 Y-70.06 E168.07237
G1 X-43.16 Y-70.296 E168.79905
G1 X-39.274 Y-72.54 E176.07502
G1 X-38.877 Y-72.753 E176.80553
G1 X-34.863 Y-74.76 E184.08217
G1 X-34.458 Y-74.948 E184.80615
G1 X-30.333 Y-76.712 E192.08046
G1 X-29.912 Y-76.877 E192.81363
G1 X-25.686 Y-78.39 E200.09172
G1 X-25.262 Y-78.528 E200.81471
G1 X-20.955 Y-79.787 E208.09046
G1 X-20.52 Y-79.9 E208.81919
G1 X-16.147 Y-80.898 E216.09202
G1 X-15.706 Y-80.985 E216.82085
G1 X-11.279 Y-81.72 E224.09719
G1 X-10.835 Y-81.78 E224.82365
G1 X-6.371 Y-82.249 E232.10156
G1 X-5.925 Y-82.282 E232.82669
G1 X-1.442 Y-82.484 E240.10294
G1 X-.99 Y-82.491 E240.83592
G1 X3.496 Y-82.423 E248.1105
G1 X3.942 Y-82.403 E248.83438
G1 X8.415 Y-82.068 E256.10736
G1 X8.861 Y-82.021 E256.83452
G1 X13.308 Y-81.419 E264.1108
G1 X13.749 Y-81.346 E264.83558
G1 X18.153 Y-80.48 E272.11311
G1 X18.595 Y-80.379 E272.84825
G1 X22.938 Y-79.249 E280.12459
G1 X23.367 Y-79.124 E280.84911
G1 X27.635 Y-77.737 E288.12563
G1 X28.057 Y-77.585 E288.85291
G1 X32.235 Y-75.945 E296.13046
G1 X32.648 Y-75.769 E296.85838
G1 X36.718 Y-73.883 E304.13171
G1 X37.119 Y-73.683 E304.85829
G1 X41.07 Y-71.557 E312.13313
G1 X41.458 Y-71.332 E312.86037
G1 X45.276 Y-68.973 E320.13733
G1 X45.651 Y-68.726 E320.86541
G1 X49.32 Y-66.143 E328.14083
G1 X49.679 Y-65.874 E328.8682
G1 X53.188 Y-63.076 E336.14514
G1 X53.531 Y-62.786 E336.87343
G1 X56.865 Y-59.784 E344.14778
G1 X57.188 Y-59.475 E344.87256
G1 X60.338 Y-56.279 E352.1486
G1 X60.645 Y-55.947 E352.88179
G1 X63.596 Y-52.568 E360.15587
G1 X63.88 Y-52.223 E360.88042
G1 X66.625 Y-48.673 E368.15657
G1 X66.889 Y-48.31 E368.88434
G1 X69.418 Y-44.601 E376.1632
G1 X69.66 Y-44.222 E376.89232
G1 X71.96 Y-40.371 E384.16534
G1 X72.178 Y-39.98 E384.8912
G1 X74.246 Y-35.996 E392.1694
G1 X74.44 Y-35.594 E392.89314
G1 X76.266 Y-31.496 E400.16755
G1 X76.437 Y-31.077 E400.90133
G1 X78.013 Y-26.875 E408.17803
G1 X78.158 Y-26.452 E408.90308
G1 X79.481 Y-22.164 E416.17918
G1 X79.6 Y-21.731 E416.90729
G1 X80.664 Y-17.371 E424.1842
G1 X80.757 Y-16.932 E424.9118
G1 X81.558 Y-12.518 E432.18569
G1 X81.625 Y-12.075 E432.91215
G1 X82.161 Y-7.62 E440.18772
G1 X82.202 Y-7.172 E440.91716
G1 X82.47 Y-2.693 E448.19254
G1 X82.483 Y-2.245 E448.91925
G1 X82.483 Y2.244 E456.19786
G1 X82.47 Y2.692 E456.92456
G1 X82.202 Y7.171 E464.19994
G1 X82.161 Y7.619 E464.92938
G1 X81.625 Y12.073 E472.20334
G1 X81.559 Y12.514 E472.92636
G1 X80.759 Y16.93 E480.20315
G1 X80.665 Y17.373 E480.93743
G1 X79.6 Y21.732 E488.21315
G1 X79.481 Y22.163 E488.93813
G1 X78.158 Y26.451 E496.21424
G1 X78.014 Y26.873 E496.93722
G1 X76.438 Y31.076 E504.21544
G1 X76.266 Y31.496 E504.95133
G1 X74.44 Y35.594 E512.22574
G1 X74.246 Y35.996 E512.94949
G1 X72.179 Y39.979 E520.22551
G1 X71.961 Y40.37 E520.95137
G1 X69.66 Y44.222 E528.22661
G1 X69.418 Y44.601 E528.95572
G1 X66.89 Y48.309 E536.23233
G1 X66.626 Y48.672 E536.9601
G1 X63.881 Y52.222 E544.23626
G1 X63.597 Y52.567 E544.9608
G1 X60.646 Y55.946 E552.23488
G1 X60.339 Y56.278 E552.96807
G1 X57.189 Y59.474 E560.24411
G1 X56.866 Y59.783 E560.96889
G1 X53.532 Y62.785 E568.24324
G1 X53.189 Y63.075 E568.97153
G1 X49.679 Y65.874 E576.25075
G1 X49.32 Y66.143 E576.97812
G1 X45.651 Y68.726 E584.25354
G1 X45.276 Y68.973 E584.98162
G1 X41.46 Y71.331 E592.25497
G1 X41.072 Y71.556 E592.98221
G1 X37.119 Y73.683 E600.26067
G1 X36.718 Y73.883 E600.98725
G1 X32.648 Y75.769 E608.26058
G1 X32.235 Y75.945 E608.9885
G1 X28.057 Y77.585 E616.26605
G1 X27.635 Y77.737 E616.99333
G1 X23.367 Y79.124 E624.26985
G1 X22.936 Y79.25 E624.99794
G1 X18.593 Y80.379 E632.27387
G1 X18.155 Y80.479 E633.00233
G1 X13.751 Y81.346 E640.28017
G1 X13.308 Y81.419 E641.00816
G1 X8.861 Y82.021 E648.28443
G1 X8.415 Y82.068 E649.01159
G1 X3.942 Y82.403 E656.28457
G1 X3.496 Y82.423 E657.00845
G1 X-.99 Y82.491 E664.28303
G1 X-1.442 Y82.484 E665.01601
G1 X-5.925 Y82.282 E672.29226
G1 X-6.371 Y82.249 E673.01739
G1 X-10.835 Y81.78 E680.2953
G1 X-11.278 Y81.72 E681.02016
G1 X-15.705 Y80.986 E688.29623
G1 X-16.148 Y80.899 E689.02824
G1 X-20.521 Y79.9 E696.30143
G1 X-20.955 Y79.787 E697.02859
G1 X-25.262 Y78.528 E704.30435
G1 X-25.686 Y78.39 E705.02733
G1 X-29.912 Y76.877 E712.30542
G1 X-30.333 Y76.712 E713.0386
G1 X-34.458 Y74.948 E720.3129
G1 X-34.863 Y74.76 E721.03688
G1 X-38.877 Y72.753 E728.31353
G1 X-39.274 Y72.54 E729.04403
G1 X-43.16 Y70.296 E736.32
G1 X-43.541 Y70.06 E737.04668
G1 X-47.287 Y67.587 E744.32477
G1 X-47.653 Y67.329 E745.05083
G1 X-51.243 Y64.638 E752.32555
G1 X-51.594 Y64.359 E753.05256
G1 X-55.017 Y61.458 E760.32785
G1 X-55.352 Y61.156 E761.05916
G1 X-58.594 Y58.055 E768.33337
G1 X-58.908 Y57.737 E769.05799
G1 X-61.962 Y54.446 E776.33776
G1 X-62.256 Y54.108 E777.06412
G1 X-65.107 Y50.642 E784.34096
G1 X-65.383 Y50.286 E785.07135
G1 X-68.02 Y46.656 E792.34626
G1 X-68.273 Y46.284 E793.07571
G1 X-70.688 Y42.502 E800.35154
G1 X-70.917 Y42.119 E801.07509
G1 X-73.102 Y38.201 E808.34897
G1 X-73.31 Y37.801 E809.07999
G1 X-75.256 Y33.758 E816.35528
G1 X-75.437 Y33.352 E817.07604
G1 X-77.141 Y29.199 E824.35462
G1 X-77.3 Y28.775 E825.08886
G1 X-78.749 Y24.53 E832.36178
G1 X-78.881 Y24.101 E833.08955
G1 X-80.074 Y19.776 E840.36414
G0 X-77.182 Y18.979
G1 X-77.245 Y18.718 E840.79949
G1 X-78.179 Y14.328 E848.07689
G1 X-78.228 Y14.063 E848.51385
G1 X-78.897 Y9.625 E855.79107
G1 X-78.929 Y9.357 E856.2287
G1 X-79.331 Y4.887 E863.50575
G1 X-79.347 Y4.618 E863.94268
G1 X-79.481 Y0.135 E871.21481
G1 X-79.481 Y-.133 E871.64935
G1 X-79.347 Y-4.618 E878.92472
G1 X-79.331 Y-4.887 E879.36165
G1 X-78.929 Y-9.357 E886.6387
G1 X-78.897 Y-9.625 E887.07633
G1 X-78.228 Y-14.063 E894.35355
G1 X-78.18 Y-14.327 E894.78862
G1 X-77.247 Y-18.717 E902.06569
G1 X-77.183 Y-18.98 E902.50457
G1 X-75.989 Y-23.305 E909.77959
G1 X-75.909 Y-23.562 E910.21602
G1 X-74.459 Y-27.807 E917.48946
G1 X-74.365 Y-28.059 E917.92556
G1 X-72.662 Y-32.212 E925.20353
G1 X-72.553 Y-32.457 E925.63832
G1 X-70.607 Y-36.5 E932.91362
G1 X-70.482 Y-36.74 E933.35238
G1 X-68.297 Y-40.658 E940.62625
G1 X-68.16 Y-40.888 E941.06033
G1 X-65.745 Y-44.67 E948.33616
G1 X-65.593 Y-44.893 E948.77374
G1 X-62.956 Y-48.523 E956.04866
G1 X-62.79 Y-48.737 E956.4878
G1 X-59.939 Y-52.203 E963.76464
G1 X-59.763 Y-52.404 E964.19783
G1 X-56.71 Y-55.695 E971.4765
G1 X-56.521 Y-55.887 E971.91334
G1 X-53.278 Y-58.988 E979.18872
G1 X-53.077 Y-59.169 E979.62729
G1 X-49.654 Y-62.07 E986.90258
G1 X-49.444 Y-62.238 E987.33863
G1 X-45.854 Y-64.929 E994.61335
G1 X-45.634 Y-65.083 E995.04877
G1 X-41.888 Y-67.556 E1002.32686
G1 X-41.659 Y-67.698 E1002.76376
G1 X-37.773 Y-69.942 E1010.03973
G1 X-37.535 Y-70.07 E1010.4779
G1 X-33.521 Y-72.077 E1017.75454
G1 X-33.278 Y-72.19 E1018.18907
G1 X-29.153 Y-73.954 E1025.46338
G1 X-28.901 Y-74.053 E1025.90238
G1 X-24.675 Y-75.566 E1033.18046
G1 X-24.421 Y-75.648 E1033.61324
G1 X-20.114 Y-76.907 E1040.88899
G1 X-19.852 Y-76.975 E1041.32788
G1 X-15.479 Y-77.973 E1048.60071
G1 X-15.215 Y-78.025 E1049.03699
G1 X-10.788 Y-78.76 E1056.31333
G1 X-10.521 Y-78.796 E1056.75017
G1 X-6.057 Y-79.265 E1064.02807
G1 X-5.79 Y-79.285 E1064.46221
G1 X-1.307 Y-79.487 E1071.73846
G1 X-1.036 Y-79.491 E1072.17792
G1 X3.45 Y-79.423 E1079.4525
G1 X3.718 Y-79.411 E1079.88748
G1 X8.191 Y-79.076 E1087.16045
G1 X8.459 Y-79.048 E1087.59736
G1 X12.906 Y-78.446 E1094.87363
G1 X13.17 Y-78.402 E1095.3076
G1 X17.574 Y-77.536 E1102.58513
G1 X17.839 Y-77.476 E1103.02568
G1 X22.182 Y-76.346 E1110.30202
G1 X22.44 Y-76.271 E1110.73767
G1 X26.708 Y-74.884 E1118.01419
G1 X26.961 Y-74.793 E1118.45014
G1 X31.139 Y-73.153 E1125.72769
G1 X31.387 Y-73.047 E1126.165
G1 X35.457 Y-71.161 E1133.43833
G1 X35.697 Y-71.041 E1133.8734
G1 X39.648 Y-68.915 E1141.14824
G1 X39.881 Y-68.78 E1141.58487
G1 X43.699 Y-66.421 E1148.86183
G1 X43.924 Y-66.273 E1149.2985
G1 X47.593 Y-63.69 E1156.57391
G1 X47.808 Y-63.528 E1157.0104
G1 X51.317 Y-60.73 E1164.28734
G1 X51.523 Y-60.556 E1164.72456
G1 X54.857 Y-57.554 E1171.99891
G1 X55.051 Y-57.369 E1172.43357
G1 X58.201 Y-54.173 E1179.70961
G1 X58.385 Y-53.974 E1180.14907
G1 X61.336 Y-50.595 E1187.42314
G1 X61.507 Y-50.388 E1187.85849
G1 X64.252 Y-46.838 E1195.13464
G1 X64.41 Y-46.62 E1195.57119
G1 X66.939 Y-42.911 E1202.85005
G1 X67.084 Y-42.683 E1203.28816
G1 X69.384 Y-38.832 E1210.56118
G1 X69.515 Y-38.598 E1210.99601
G1 X71.583 Y-34.614 E1218.27421
G1 X71.699 Y-34.373 E1218.70788
G1 X73.525 Y-30.275 E1225.98229
G1 X73.628 Y-30.023 E1226.4237
G1 X75.204 Y-25.821 E1233.70041
G1 X75.291 Y-25.568 E1234.1342
G1 X76.614 Y-21.28 E1241.41031
G1 X76.686 Y-21.02 E1241.84775
G1 X77.75 Y-16.66 E1249.12465
G1 X77.806 Y-16.396 E1249.56223
G1 X78.607 Y-11.982 E1256.83612
G1 X78.647 Y-11.717 E1257.27067
G1 X79.183 Y-7.262 E1264.54624
G1 X79.207 Y-6.993 E1264.98414
G1 X79.475 Y-2.514 E1272.25952
G1 X79.483 Y-2.245 E1272.69588
G1 X79.483 Y2.244 E1279.97448
G1 X79.475 Y2.513 E1280.41084
G1 X79.207 Y6.992 E1287.68622
G1 X79.183 Y7.261 E1288.12412
G1 X78.647 Y11.715 E1295.39808
G1 X78.607 Y11.979 E1295.83102
G1 X77.807 Y16.395 E1303.10781
G1 X77.75 Y16.661 E1303.5489
G1 X76.685 Y21.02 E1310.82462
G1 X76.614 Y21.279 E1311.26006
G1 X75.291 Y25.567 E1318.53617
G1 X75.205 Y25.82 E1318.96944
G1 X73.629 Y30.023 E1326.24766
G1 X73.525 Y30.275 E1326.68969
G1 X71.699 Y34.373 E1333.9641
G1 X71.583 Y34.614 E1334.39777
G1 X69.516 Y38.597 E1341.67379
G1 X69.385 Y38.832 E1342.11003
G1 X67.084 Y42.684 E1349.38527
G1 X66.939 Y42.911 E1349.82202
G1 X64.411 Y46.619 E1357.09863
G1 X64.253 Y46.837 E1357.53517
G1 X61.508 Y50.387 E1364.81132
G1 X61.337 Y50.594 E1365.24667
G1 X58.386 Y53.973 E1372.52075
G1 X58.202 Y54.172 E1372.9602
G1 X55.052 Y57.368 E1380.23624
G1 X54.858 Y57.553 E1380.6709
G1 X51.524 Y60.555 E1387.94525
G1 X51.319 Y60.729 E1388.38123
G1 X47.809 Y63.528 E1395.66045
G1 X47.593 Y63.69 E1396.09824
G1 X43.924 Y66.273 E1403.37365
G1 X43.699 Y66.421 E1403.81032
G1 X39.883 Y68.779 E1411.08367
G1 X39.65 Y68.914 E1411.5203
G1 X35.697 Y71.041 E1418.79876
G1 X35.457 Y71.161 E1419.23384
G1 X31.387 Y73.047 E1426.50716
G1 X31.139 Y73.153 E1426.94447
G1 X26.961 Y74.793 E1434.22202
G1 X26.708 Y74.884 E1434.65797
G1 X22.44 Y76.271 E1441.9345
G1 X22.181 Y76.346 E1442.3717
G1 X17.838 Y77.475 E1449.64763
G1 X17.575 Y77.535 E1450.08502
G1 X13.171 Y78.402 E1457.36287
G1 X12.906 Y78.446 E1457.79843
G1 X8.459 Y79.048 E1465.0747
G1 X8.191 Y79.076 E1465.51161
G1 X3.718 Y79.411 E1472.78459
G1 X3.45 Y79.423 E1473.21957
G1 X-1.036 Y79.491 E1480.49414
G1 X-1.307 Y79.487 E1480.9336
G1 X-5.79 Y79.285 E1488.20985
G1 X-6.057 Y79.265 E1488.64399
G1 X-10.521 Y78.796 E1495.9219
G1 X-10.787 Y78.76 E1496.35713
G1 X-15.214 Y78.026 E1503.6332
G1 X-15.48 Y77.974 E1504.07267
G1 X-19.853 Y76.975 E1511.34585
G1 X-20.114 Y76.907 E1511.78317
G1 X-24.421 Y75.648 E1519.05893
G1 X-24.675 Y75.566 E1519.4917
G1 X-28.901 Y74.053 E1526.76979
G1 X-29.153 Y73.954 E1527.20879
G1 X-33.278 Y72.19 E1534.4831
G1 X-33.521 Y72.077 E1534.91762
G1 X-37.535 Y70.07 E1542.19426
G1 X-37.773 Y69.942 E1542.63243
G1 X-41.659 Y67.698 E1549.90841
G1 X-41.888 Y67.556 E1550.34531
G1 X-45.634 Y65.083 E1557.62339
G1 X-45.854 Y64.929 E1558.05882
G1 X-49.444 Y62.238 E1565.33353
G1 X-49.654 Y62.07 E1565.76959
G1 X-53.077 Y59.169 E1573.04487
G1 X-53.278 Y58.988 E1573.48344
G1 X-56.52 Y55.887 E1580.75765
G1 X-56.709 Y55.696 E1581.19334
G1 X-59.763 Y52.405 E1588.47311
G1 X-59.939 Y52.203 E1588.90752
G1 X-62.79 Y48.737 E1596.18437
G1 X-62.956 Y48.523 E1596.62351
G1 X-65.593 Y44.893 E1603.89842
G1 X-65.745 Y44.67 E1604.336
G1 X-68.16 Y40.888 E1611.61183
G1 X-68.297 Y40.658 E1612.04591
G1 X-70.482 Y36.74 E1619.31979
G1 X-70.607 Y36.5 E1619.75855
G1 X-72.553 Y32.457 E1627.03384
G1 X-72.661 Y32.213 E1627.46649
G1 X-74.365 Y28.06 E1634.74508
G1 X-74.461 Y27.806 E1635.18536
G1 X-75.91 Y23.561 E1642.45827
G1 X-75.989 Y23.304 E1642.89422
G1 X-77.182 Y18.979 E1650.16881
G0 X-74.29 Y18.181
G1 X-74.311 Y18.094 E1650.31393
G1 X-75.245 Y13.704 E1657.59133
G1 X-75.261 Y13.616 E1657.73635
G1 X-75.93 Y9.178 E1665.01357
G1 X-75.941 Y9.088 E1665.16058
G1 X-76.343 Y4.618 E1672.43763
G1 X-76.348 Y4.529 E1672.58217
G1 X-76.482 Y0.046 E1679.85429
G1 X-76.482 Y-0.044 E1680.00022
G1 X-76.348 Y-4.529 E1687.27559
G1 X-76.343 Y-4.618 E1687.42012
G1 X-75.941 Y-9.088 E1694.69717
G1 X-75.93 Y-9.178 E1694.84419
G1 X-75.261 Y-13.616 E1702.1214
G1 X-75.245 Y-13.704 E1702.26642
G1 X-74.312 Y-18.094 E1709.54349
G1 X-74.291 Y-18.181 E1709.6886
G1 X-73.097 Y-22.506 E1716.96362
G1 X-73.07 Y-22.592 E1717.10978
G1 X-71.62 Y-26.837 E1724.38322
G1 X-71.589 Y-26.921 E1724.5284
G1 X-69.886 Y-31.074 E1731.80637
G1 X-69.85 Y-31.156 E1731.95158
G1 X-67.904 Y-35.199 E1739.22687
G1 X-67.862 Y-35.279 E1739.37337
G1 X-65.677 Y-39.197 E1746.64725
G1 X-65.631 Y-39.273 E1746.79129
G1 X-63.216 Y-43.055 E1754.06712
G1 X-63.166 Y-43.13 E1754.21328
G1 X-60.529 Y-46.76 E1761.48819
G1 X-60.473 Y-46.831 E1761.63481
G1 X-57.622 Y-50.297 E1768.91165
G1 X-57.564 Y-50.364 E1769.05534
G1 X-54.511 Y-53.655 E1776.33401
G1 X-54.448 Y-53.719 E1776.47962
G1 X-51.205 Y-56.82 E1783.755
G1 X-51.138 Y-56.88 E1783.90083
G1 X-47.715 Y-59.781 E1791.17612
G1 X-47.645 Y-59.837 E1791.32147
G1 X-44.055 Y-62.528 E1798.59618
G1 X-43.981 Y-62.58 E1798.74283
G1 X-40.235 Y-65.053 E1806.02092
G1 X-40.159 Y-65.1 E1806.16581
G1 X-36.273 Y-67.344 E1813.44178
G1 X-36.194 Y-67.387 E1813.58762
G1 X-32.18 Y-69.394 E1820.86426
G1 X-32.099 Y-69.431 E1821.00865
G1 X-27.974 Y-71.195 E1828.28296
G1 X-27.89 Y-71.228 E1828.42929
G1 X-23.664 Y-72.741 E1835.70738
G1 X-23.579 Y-72.769 E1835.85248
G1 X-19.272 Y-74.028 E1843.12824
G1 X-19.185 Y-74.05 E1843.27374
G1 X-14.812 Y-75.048 E1850.54657
G1 X-14.724 Y-75.066 E1850.69221
G1 X-10.297 Y-75.801 E1857.96855
G1 X-10.208 Y-75.813 E1858.11416
G1 X-5.744 Y-76.282 E1865.39207
G1 X-5.655 Y-76.288 E1865.5367
G1 X-1.172 Y-76.49 E1872.81295
G1 X-1.081 Y-76.492 E1872.96054
G1 X3.405 Y-76.424 E1880.23512
G1 X3.494 Y-76.42 E1880.37957
G1 X7.967 Y-76.085 E1887.65255
G1 X8.056 Y-76.075 E1887.79776
G1 X12.503 Y-75.473 E1895.07404
G1 X12.591 Y-75.459 E1895.21852
G1 X16.995 Y-74.593 E1902.49605
G1 X17.084 Y-74.573 E1902.64396
G1 X21.427 Y-73.443 E1909.92029
G1 X21.513 Y-73.418 E1910.06551
G1 X25.781 Y-72.031 E1917.34203
G1 X25.865 Y-72 E1917.48721
G1 X30.043 Y-70.36 E1924.76476
G1 X30.126 Y-70.325 E1924.91082
G1 X34.196 Y-68.439 E1932.18414
G1 X34.276 Y-68.399 E1932.32917
G1 X38.227 Y-66.273 E1939.60401
G1 X38.304 Y-66.228 E1939.74862
G1 X42.122 Y-63.869 E1947.02558
G1 X42.197 Y-63.82 E1947.17084
G1 X45.866 Y-61.237 E1954.44625
G1 X45.938 Y-61.183 E1954.59218
G1 X49.447 Y-58.385 E1961.86912
G1 X49.516 Y-58.327 E1962.01527
